build/images/icons/history.svg

<svg width="32" height="32" viewBox="0 0 32 32" fill="none" xmlns="http://www.w3.org/2000/svg">
<path d="M28.0003 13.4933H18.9603L22.6137 9.73333C18.9737 6.13333 13.0803 6 9.44033 9.6C5.80033 13.2133 5.80033 19.04 9.44033 22.6533C13.0803 26.2667 18.9737 26.2667 22.6137 22.6533C24.427 20.8667 25.3337 18.7733 25.3337 16.1333H28.0003C28.0003 18.7733 26.827 22.2 24.4803 24.52C19.8003 29.16 12.2003 29.16 7.52033 24.52C2.85366 19.8933 2.81366 12.3733 7.49366 7.74667C12.1737 3.12 19.6803 3.12 24.3603 7.74667L28.0003 4V13.4933ZM16.667 10.6667V16.3333L21.3337 19.1067L20.3737 20.72L14.667 17.3333V10.6667H16.667Z"/>
</svg>

<svg width="32" height="32" fill="none" xmlns="http://www.w3.org/2000/svg"><path d="M28 13.493h-9.04l3.654-3.76C18.974 6.133 13.08 6 9.44 9.6a9.167 9.167 0 000 13.053c3.64 3.614 9.534 3.614 13.174 0 1.813-1.786 2.72-3.88 2.72-6.52H28c0 2.64-1.173 6.067-3.52 8.387-4.68 4.64-12.28 4.64-16.96 0-4.666-4.627-4.706-12.147-.026-16.773a11.983 11.983 0 0116.866 0L28 4v9.493zm-11.333-2.826v5.666l4.667 2.774-.96 1.613-5.707-3.387v-6.666h2z"/></svg>
